#src/img/common/inst.svg

<svg width="23" height="23" viewBox="0 0 23 23" fill="none" xmlns="http://www.w3.org/2000/svg">
  <path d="M16.6526 0H6.34699C2.84726 0 0 2.8474 0 6.34713V16.6527C0 20.1526 2.84726 22.9999 6.34699 22.9999H16.6526C20.1526 22.9999 22.9999 20.1525 22.9999 16.6527V6.34713C23 2.8474 20.1526 0 16.6526 0ZM20.9593 16.6527C20.9593 19.0274 19.0274 20.9592 16.6527 20.9592H6.34699C3.97248 20.9593 2.04066 19.0274 2.04066 16.6527V6.34713C2.04066 3.97262 3.97248 2.04066 6.34699 2.04066H16.6526C19.0272 2.04066 20.9592 3.97262 20.9592 6.34713V16.6527H20.9593Z" fill="#202020"/>
  <path d="M11.4997 5.57373C8.23181 5.57373 5.57324 8.2323 5.57324 11.5002C5.57324 14.768 8.23181 17.4264 11.4997 17.4264C14.7676 17.4264 17.4262 14.768 17.4262 11.5002C17.4262 8.2323 14.7676 5.57373 11.4997 5.57373ZM11.4997 15.3856C9.35717 15.3856 7.6139 13.6426 7.6139 11.5001C7.6139 9.35738 9.35703 7.61425 11.4997 7.61425C13.6424 7.61425 15.3855 9.35738 15.3855 11.5001C15.3855 13.6426 13.6423 15.3856 11.4997 15.3856Z" fill="#202020"/>
  <path d="M17.6752 3.84338C17.282 3.84338 16.8958 4.00256 16.6181 4.28145C16.3391 4.55898 16.1787 4.94534 16.1787 5.33987C16.1787 5.73317 16.3392 6.1194 16.6181 6.39829C16.8957 6.67582 17.282 6.83635 17.6752 6.83635C18.0697 6.83635 18.4547 6.67582 18.7336 6.39829C19.0125 6.1194 19.1717 5.73303 19.1717 5.33987C19.1717 4.94534 19.0125 4.55898 18.7336 4.28145C18.4561 4.00256 18.0697 3.84338 17.6752 3.84338Z" fill="#202020"/>
</svg>

<svg width="23" height="23" fill="none" xmlns="http://www.w3.org/2000/svg"><path d="M16.653 0H6.347A6.354 6.354 0 000 6.347v10.306C0 20.153 2.847 23 6.347 23h10.306c3.5 0 6.347-2.848 6.347-6.347V6.347C23 2.847 20.153 0 16.653 0zm4.306 16.653a4.311 4.311 0 01-4.306 4.306H6.347a4.311 4.311 0 01-4.306-4.306V6.347a4.311 4.311 0 014.306-4.306h10.306a4.312 4.312 0 014.306 4.306v10.306z" fill="#202020"/><path d="M11.5 5.574A5.933 5.933 0 005.573 11.5a5.933 5.933 0 005.927 5.926 5.933 5.933 0 005.926-5.926A5.933 5.933 0 0011.5 5.574zm0 9.812A3.89 3.89 0 017.614 11.5 3.89 3.89 0 0111.5 7.614a3.89 3.89 0 013.886 3.886 3.89 3.89 0 01-3.886 3.886zm6.175-11.543c-.393 0-.78.16-1.057.438-.279.278-.44.664-.44 1.059 0 .393.161.78.44 1.058.278.278.664.438 1.057.438.395 0 .78-.16 1.059-.438.278-.279.438-.665.438-1.058 0-.395-.16-.781-.438-1.059a1.503 1.503 0 00-1.059-.438z" fill="#202020"/></svg>
